src/exit.svg

<svg width="24" height="24" viewBox="0 0 24 24" xmlns="http://www.w3.org/2000/svg" xmlns:xlink="http://www.w3.org/1999/xlink">
  <path d="M5 19V5h5.944V3H5a2 2 0 0 0-2 2v14a2 2 0 0 0 2 2h14c1.1 0 2-.9 2-2v-5.98h-2V19H5zm9-16v2h3.59l-9.83 9.83 1.41 1.41L19 6.41V10h2V3h-7z" fill="currentColor"/>
</svg>

<svg width="24" height="24" viewBox="0 0 24 24" xmlns="http://www.w3.org/2000/svg">
<path fill-rule="evenodd" clip-rule="evenodd" d="M5 19V5H10.9443V3H5C3.89 3 3 3.9 3 5V19C3 20.1 3.89 21 5 21H19C20.1 21 21 20.1 21 19V13.0201H19V19H5ZM14 3V5H17.59L7.76 14.83L9.17 16.24L19 6.41V10H21V3H14V3Z" fill="currentColor"/>
</svg>
